X: 0823
T: ROHAN'S REEL
B: Oliver Ditson "The Boston Collection of Instrumental Music" 1910 p.82 #3
F: http://conquest.imslp.info/files/imglnks/usimg/8/8f/IMSLP175643-PMLP309456-bostoncollection00bost_bw.pdf
%: 2012 John Chambers <jc:trillian.mit.edu>
M: 4/4
L: 1/8
K: D
|:\
A2A^G Add2 | A2AG Ec cB |\
A2A^G Add2 | cAGE D2D2 :|
edcd eAA2 | edcd eaa2 |\
edcd edcA | GA cd edd2 ||
edcd edcd | edcd eaa2 |\
gefd edcA | GA cd edd2 |]

%%sep 1 1 500
%%sep 1 1 500
